svg/Outline/chevron-back.svg

<svg viewBox="0 0 24 24" xmlns="http://www.w3.org/2000/svg" width="24" height="24"><path d="M13.71 5.26a.9.9 0 0 1 1.27 1.28l-4.97 4.96-.45.48v.03l.05.06q.11.13.4.42l4.97 4.97.06.07a.9.9 0 0 1-1.26 1.27l-.07-.07-4.97-4.96q-.3-.29-.5-.53-.24-.25-.39-.65a2 2 0 0 1 0-1.18l.08-.2q.14-.25.3-.45l.51-.53z"/></svg>

<svg viewBox="0 0 24 24" xmlns="http://www.w3.org/2000/svg" width="24" height="24"><path d="M13.71 5.26A.9 .9 0 0 1 14.98 6.54L10.01 11.5L9.56 12.01L9.61 12.07Q9.72 12.2 10.01 12.49L15.04 17.53A.9 .9 0 0 1 13.78 18.8L8.74 13.77Q8.44 13.48 8.24 13.24Q8 12.99 7.85 12.59A2 2 0 0 1 7.85 11.41L7.93 11.21Q8.07 10.96 8.23 10.76L8.74 10.23Z"/></svg>
